img/rss.svg

<?xml version="1.0" encoding="UTF-8"?>
<svg width="20px" height="20px" viewBox="0 0 20 20" version="1.1" xmlns="http://www.w3.org/2000/svg" xmlns:xlink="http://www.w3.org/1999/xlink">
    <!-- Generator: Sketch 55.2 (78181) - https://sketchapp.com -->
    <title>icons8-rss</title>
    <desc>Created with Sketch.</desc>
    <g id="Homepage" stroke="none" stroke-width="1" fill="none" fill-rule="evenodd">
        <g id="Tablet---All-Nav-Options" transform="translate(-621.000000, -70.000000)" fill="#031268" fill-rule="nonzero">
            <g id="icons8-rss" transform="translate(621.000000, 70.000000)">
                <path d="M17.7777778,0 L2.22222222,0 C0.996666667,0 0,0.996666667 0,2.22222222 L0,17.7777778 C0,19.0033333 0.996666667,20 2.22222222,20 L17.7777778,20 C19.0033333,20 20,19.0033333 20,17.7777778 L20,2.22222222 C20,0.996666667 19.0033333,0 17.7777778,0 Z M5,16.6666667 C4.08,16.6666667 3.33333333,15.92 3.33333333,15 C3.33333333,14.08 4.08,13.3333333 5,13.3333333 C5.92,13.3333333 6.66666667,14.08 6.66666667,15 C6.66666667,15.92 5.92,16.6666667 5,16.6666667 Z M11.1111111,16.6666667 L11.1111111,16.6666667 C10.4977778,16.6666667 10,16.1688889 10,15.5555556 L10,15.5555556 C10,12.4877778 7.51222222,10 4.44444444,10 L4.44444444,10 C3.83111111,10 3.33333333,9.50222222 3.33333333,8.88888889 L3.33333333,8.88888889 C3.33333333,8.27555556 3.83111111,7.77777778 4.44444444,7.77777778 L4.44444444,7.77777778 C8.74,7.77777778 12.2222222,11.26 12.2222222,15.5555556 L12.2222222,15.5555556 C12.2222222,16.1688889 11.7244444,16.6666667 11.1111111,16.6666667 Z M15.5555556,16.6666667 L15.5555556,16.6666667 C14.9422222,16.6666667 14.4444444,16.1688889 14.4444444,15.5555556 L14.4444444,15.5555556 C14.4444444,10.0322222 9.96777778,5.55555556 4.44444444,5.55555556 L4.44444444,5.55555556 C3.83111111,5.55555556 3.33333333,5.05777778 3.33333333,4.44444444 L3.33333333,4.44444444 C3.33333333,3.83111111 3.83111111,3.33333333 4.44444444,3.33333333 L4.44444444,3.33333333 C11.1944444,3.33333333 16.6666667,8.80555556 16.6666667,15.5555556 L16.6666667,15.5555556 C16.6666667,16.1688889 16.1688889,16.6666667 15.5555556,16.6666667 Z" id="Shape"></path>
            </g>
        </g>
    </g>
</svg>

<svg width="20" height="20" xmlns="http://www.w3.org/2000/svg"><path d="M17.778 0H2.222A2.224 2.224 0 000 2.222v15.556C0 19.003.997 20 2.222 20h15.556A2.224 2.224 0 0020 17.778V2.222A2.224 2.224 0 0017.778 0zM5 16.667a1.667 1.667 0 11.001-3.335A1.667 1.667 0 015 16.667zm6.111 0A1.112 1.112 0 0110 15.556 5.556 5.556 0 004.444 10a1.112 1.112 0 010-2.222 7.778 7.778 0 017.778 7.778c0 .613-.498 1.11-1.11 1.11zm4.445 0a1.112 1.112 0 01-1.112-1.111c0-5.524-4.476-10-10-10a1.112 1.112 0 010-2.222c6.75 0 12.223 5.472 12.223 12.222 0 .613-.498 1.11-1.111 1.11z" fill="#031268" fill-rule="nonzero"/></svg>
